build/svg/cmd/sc_basicstepover.svg

<?xml version="1.0" encoding="UTF-8" standalone="no"?>
<svg
   xmlns:dc="http://purl.org/dc/elements/1.1/"
   xmlns:cc="http://creativecommons.org/ns#"
   xmlns:rdf="http://www.w3.org/1999/02/22-rdf-syntax-ns#"
   xmlns:svg="http://www.w3.org/2000/svg"
   xmlns="http://www.w3.org/2000/svg"
   xmlns:sodipodi="http://sodipodi.sourceforge.net/DTD/sodipodi-0.dtd"
   xmlns:inkscape="http://www.inkscape.org/namespaces/inkscape"
   viewBox="0 0 16 16"
   version="1.1"
   id="svg6"
   sodipodi:docname="sc_basicstepover.svg"
   inkscape:export-filename="/home/jupiter007/Libreoffice yaru theme fullcolor/build/cmd/sc_basicstepover.png"
   inkscape:export-xdpi="96"
   inkscape:export-ydpi="96"
   inkscape:version="0.92.5 (2060ec1f9f, 2020-04-08)">
  <metadata
     id="metadata12">
    <rdf:RDF>
      <cc:Work
         rdf:about="">
        <dc:format>image/svg+xml</dc:format>
        <dc:type
           rdf:resource="http://purl.org/dc/dcmitype/StillImage" />
      </cc:Work>
    </rdf:RDF>
  </metadata>
  <defs
     id="defs10" />
  <sodipodi:namedview
     pagecolor="#ffffff"
     bordercolor="#666666"
     borderopacity="1"
     objecttolerance="10"
     gridtolerance="10"
     guidetolerance="10"
     inkscape:pageopacity="0"
     inkscape:pageshadow="2"
     inkscape:window-width="1920"
     inkscape:window-height="1011"
     id="namedview8"
     showgrid="true"
     inkscape:zoom="20.85965"
     inkscape:cx="3.9057537"
     inkscape:cy="9.2510015"
     inkscape:window-x="0"
     inkscape:window-y="32"
     inkscape:window-maximized="1"
     inkscape:current-layer="svg6">
    <inkscape:grid
       type="xygrid"
       id="grid842" />
  </sodipodi:namedview>
  <path
     sodipodi:nodetypes="sccsccsccssccscccsccssccs"
     style="opacity:0.6;fill:#000000;stroke:#000000;stroke-width:2;stroke-linejoin:round;stroke-miterlimit:4;stroke-dasharray:none"
     inkscape:connector-curvature="0"
     id="path819"
     d="M 3.9999999,3.0000002 C 2.895478,3.0000002 2,3.8954779 2,5.0000002 v 2.4999996 c 0,0.27615 -0.2238974,0.495321 -0.5,0.5 H 1 v 2 H 1.5 C 1.7761423,9.9999998 2,10.223851 2,10.5 v 1.5 1 c 0,1.104597 0.8954308,2 1.9999999,2 h 2 v -2 h -1 c -0.552284,0 -0.990479,-0.447783 -1,-1 V 9.9999998 c 0,-0.382499 -0.139285,-0.735025 -0.375,-1 0.235715,-0.264974 0.381594,-0.617557 0.375,-1 v -1 -0.2812496 -0.71875 c 0,-0.5522986 0.452148,-1.0693454 1,-1 h 1 v -2 z" />
  <path
     d="M 3.9999999,3.0000002 C 2.895478,3.0000002 2,3.8954779 2,5.0000002 v 2.4999996 c 0,0.27615 -0.2238974,0.495321 -0.5,0.5 H 1 v 2 H 1.5 C 1.7761423,9.9999998 2,10.223851 2,10.5 v 1.5 1 c 0,1.104597 0.8954308,2 1.9999999,2 h 2 v -2 h -1 c -0.552284,0 -0.990479,-0.447783 -1,-1 V 9.9999998 c 0,-0.382499 -0.139285,-0.735025 -0.375,-1 0.235715,-0.264974 0.381594,-0.617557 0.375,-1 v -1 -0.2812496 -0.71875 c 0,-0.5522986 0.452148,-1.0693454 1,-1 h 1 v -2 z"
     id="path2"
     inkscape:connector-curvature="0"
     style="fill:#ffffff"
     sodipodi:nodetypes="sccsccsccssccscccsccssccs" />
  <path
     d="m 10,3.0000002 c 1.104522,0 2,0.8954777 2,2 v 2.4999996 c 0,0.27615 0.223897,0.495321 0.5,0.5 H 13 v 2 H 12.5 C 12.223858,9.9999998 12,10.223851 12,10.5 v 1.5 1 c 0,1.104597 -0.895431,2 -2,2 H 8 v -2 h 1 c 0.552284,0 0.990479,-0.447783 1,-1 V 9.9999998 c 0,-0.382499 0.139285,-0.735025 0.375,-1 -0.235715,-0.264974 -0.381594,-0.617557 -0.375,-1 v -1 -0.2812496 -0.71875 c 0,-0.5522986 -0.452148,-1.0693454 -1,-1 H 8 v -2 z"
     id="path823"
     inkscape:connector-curvature="0"
     style="opacity:0.6;fill:#000000;stroke:#000000;stroke-width:2;stroke-linejoin:round;stroke-miterlimit:4;stroke-dasharray:none"
     sodipodi:nodetypes="sccsccsccssccscccsccssccs" />
  <path
     sodipodi:nodetypes="sccsccsccssccscccsccssccs"
     style="fill:#ffffff"
     inkscape:connector-curvature="0"
     id="path825"
     d="m 10,3.0000002 c 1.104522,0 2,0.8954777 2,2 v 2.4999996 c 0,0.27615 0.223897,0.495321 0.5,0.5 H 13 v 2 H 12.5 C 12.223858,9.9999998 12,10.223851 12,10.5 v 1.5 1 c 0,1.104597 -0.895431,2 -2,2 H 8 v -2 h 1 c 0.552284,0 0.990479,-0.447783 1,-1 V 9.9999998 c 0,-0.382499 0.139285,-0.735025 0.375,-1 -0.235715,-0.264974 -0.381594,-0.617557 -0.375,-1 v -1 -0.2812496 -0.71875 c 0,-0.5522986 -0.452148,-1.0693454 -1,-1 H 8 v -2 z" />
  <path
     id="path845"
     d="M 7.015625 0.96679688 L 7 2.9824219 L 9 2.9824219 C 11 2.9824219 11 2.9824219 11 4.9824219 L 10.978516 5.9882812 L 9 5.9824219 L 11.978516 10 L 14.978516 6 L 12.978516 5.9941406 L 13 3.9824219 C 13 1.982422 12 0.98242187 10 0.98242188 L 7.015625 0.96679688 z "
     style="fill:#000000;fill-opacity:1;stroke:#000000;stroke-width:2;stroke-linecap:butt;stroke-linejoin:round;stroke-opacity:1;opacity:0.6;stroke-miterlimit:4;stroke-dasharray:none" />
  <path
     style="fill:#a6d74f;fill-opacity:1;stroke:none;stroke-width:1px;stroke-linecap:butt;stroke-linejoin:miter;stroke-opacity:1"
     d="M 7.015625 0.96679688 L 7 2.9824219 L 9 2.9824219 C 11 2.9824219 11 2.9824219 11 4.9824219 L 10.978516 5.9882812 L 9 5.9824219 L 11.978516 10 L 14.978516 6 L 12.978516 5.9941406 L 13 3.9824219 C 13 1.982422 12 0.98242187 10 0.98242188 L 7.015625 0.96679688 z "
     id="path833" />
</svg>

<svg xmlns="http://www.w3.org/2000/svg" viewBox="0 0 16 16"><path d="M4 3a2 2 0 00-2 2v2.5a.503.503 0 01-.5.5H1v2h.5a.5.5 0 01.5.5V13a2 2 0 002 2h2v-2H5c-.552 0-.99-.448-1-1v-2a1.5 1.5 0 00-.375-1c.236-.265.382-.618.375-1V6c0-.552.452-1.07 1-1h1V3z" opacity=".6" stroke="#000" stroke-width="2" stroke-linejoin="round"/><path d="M4 3a2 2 0 00-2 2v2.5a.503.503 0 01-.5.5H1v2h.5a.5.5 0 01.5.5V13a2 2 0 002 2h2v-2H5c-.552 0-.99-.448-1-1v-2a1.5 1.5 0 00-.375-1c.236-.265.382-.618.375-1V6c0-.552.452-1.07 1-1h1V3z" fill="#fff"/><path d="M10 3a2 2 0 012 2v2.5c0 .276.224.495.5.5h.5v2h-.5a.5.5 0 00-.5.5V13a2 2 0 01-2 2H8v-2h1c.552 0 .99-.448 1-1v-2c0-.382.14-.735.375-1A1.468 1.468 0 0110 8V6c0-.552-.452-1.07-1-1H8V3z" opacity=".6" stroke="#000" stroke-width="2" stroke-linejoin="round"/><path d="M10 3a2 2 0 012 2v2.5c0 .276.224.495.5.5h.5v2h-.5a.5.5 0 00-.5.5V13a2 2 0 01-2 2H8v-2h1c.552 0 .99-.448 1-1v-2c0-.382.14-.735.375-1A1.468 1.468 0 0110 8V6c0-.552-.452-1.07-1-1H8V3z" fill="#fff"/><path d="M7.016.967L7 2.982h2c2 0 2 0 2 2l-.021 1.006L9 5.982 11.979 10l3-4-2-.006L13 3.982c0-2-1-3-3-3L7.016.967z" stroke="#000" stroke-width="2" stroke-linejoin="round" opacity=".6"/><path d="M7.016.967L7 2.982h2c2 0 2 0 2 2l-.021 1.006L9 5.982 11.979 10l3-4-2-.006L13 3.982c0-2-1-3-3-3L7.016.967z" fill="#a6d74f"/></svg>
